X: 301
T:Conlgh's Big Day
M:C|
L:1/8
C:Brian Finnegan
R:reel
D:Flook: Rubai
Z:Devin McCabe
K:D
EFA|:Bdef dBBA|E~F2E EDEF|D2AD cDGD|edef dBBA|
!ABef dBBA|E~F2E EDEF|A~G3 FBAF|1GFD2- DEFA:|2GFD2- DAde|
!:fe e/2e/2e dec2-|cABd edef|Az A/2A/2A ABB2-|BdcA ABde|
!~f3e dec2-|cABd ed B/2c/2d|~G3B deBA|1BA A/2A/2A B/2c/2d eg:|2B/2c/2d e
z zEFA||
